X: 5225
T: Brogeen
R: polka
M: 2/4
K: Gmajor
D|:G>A BA|GE F/E/D|G>A BA|GB dB|
G>A BA|GE F/E/D|G>A BA|G2 G2:|
dg g/a/g/e/|dB G>B|AD ED|BG ED|
dg g/a/g/e/|dB G>B|AD ED|1 G2 G2:|2 G2 G||

